app/dist/common/images/comtech.svg

<svg fill="none" height="18" viewBox="0 0 18 18" width="18" xmlns="http://www.w3.org/2000/svg"><path d="m0 0h18v18h-18z" fill="#f0f3fa"/><path clip-rule="evenodd" d="m10.4275 7h1.7151c-.2442-.6954-1.2222-2-3.18042-2-2.44779 0-4.96218 2.24138-4.96218 4.2931 0 2.0517 1.99819 2.7069 3.29702 2.7069h4.05898l.2176-1.5h-4.55936c-.53848-.1261-1.61544-.4066-1.61544-1.37739 0-1.2135 1.68623-2.99659 3.49204-2.99659.34279-.01203 1.13006.07697 1.53666.87398zm2.4494 3.5h-1.0588l-.2078 1.5h1.0588zm1.1231 0h-.8213l-.2078 1.5h.8213z" fill="#231f20" fill-rule="evenodd"/><ellipse cx="8.33192" cy="8.75" fill="#1577ab" opacity=".6" rx="1.78374" ry="1.75"/><g fill="#1073ac"><path d="m7.56466 9.35582c-.07906.06477-.1553.37243-.18354.51816-.0435.18832-.21175-.17811-.26823-.29146-.05647-.11334-.16941-.17811-.22588-.34004s-.26824-.18622-.30354-.52627c-.02823-.27204.15295-.49117.24706-.56673.09883.14573.31624.4631.3953.56673.09882.12955.33883.05668.45177.11335.11294.05668-.01412.4453-.11294.52626z"/><path d="m8.1717 8.23848c.02258-.12307.26824-.34814.38824-.4453.1153-.09445.384-.28661.53648-.29956.19059-.0162.29647.08096.36.13763.06353.05668.36.42911.40942.50197.04941.07287-.00706.15383-.04942.18622-.04235.03238-.19059.30766-.36.30766s.02824.29146 0 .40481-.09177.31576-.21177.4534c-.12.13763-.14823.18621-.24706.30766-.09882.12144-.13412-.16193-.21883-.26718-.0847-.10525-.02823-.34814-.06353-.49388-.03529-.14573-.05647-.29146-.15529-.40481s-.22588-.04048-.29647-.08097c-.07059-.04048-.12001-.15382-.09177-.30765z"/></g></svg>

<!-- by TradingView --><svg width="18" height="18" viewBox="0 0 18 18" fill="none" xmlns="http://www.w3.org/2000/svg">
<rect width="18" height="18" fill="#F0F3FA"/>
<path fill-rule="evenodd" clip-rule="evenodd" d="M10.4275 7H12.1426C11.8984 6.3046 10.9204 5 8.96218 5C6.51439 5 4 7.24138 4 9.2931C4 11.3448 5.99819 12 7.29702 12H11.356L11.5736 10.5H7.01424C6.47576 10.3739 5.3988 10.0934 5.3988 9.12261C5.3988 7.90911 7.08503 6.12602 8.89084 6.12602C9.23363 6.11399 10.0209 6.20299 10.4275 7ZM12.8769 10.5H11.8181L11.6103 12H12.6691L12.8769 10.5ZM14 10.5L13.1787 10.5L12.9709 12L13.7922 12L14 10.5Z" fill="#231F20"/>
<ellipse opacity="0.6" cx="8.33192" cy="8.75" rx="1.78374" ry="1.75" fill="#1577AB"/>
<path d="M7.56466 9.35582C7.4856 9.42059 7.40936 9.72825 7.38112 9.87398C7.33762 10.0623 7.16937 9.69587 7.11289 9.58252C7.05642 9.46918 6.94348 9.40441 6.88701 9.24248C6.83054 9.08055 6.61877 9.05626 6.58347 8.71621C6.55524 8.44417 6.73642 8.22504 6.83053 8.14948C6.92936 8.29521 7.14677 8.61258 7.22583 8.71621C7.32465 8.84576 7.56466 8.77289 7.6776 8.82956C7.79054 8.88624 7.66348 9.27486 7.56466 9.35582Z" fill="#1073AC"/>
<path d="M8.1717 8.23848C8.19428 8.11541 8.43994 7.89034 8.55994 7.79318C8.67524 7.69873 8.94394 7.50657 9.09642 7.49362C9.28701 7.47742 9.39289 7.57458 9.45642 7.63125C9.51995 7.68793 9.81642 8.06036 9.86584 8.13322C9.91525 8.20609 9.85878 8.28705 9.81642 8.31944C9.77407 8.35182 9.62583 8.6271 9.45642 8.6271C9.28701 8.6271 9.48466 8.91856 9.45642 9.03191C9.42818 9.14526 9.36465 9.34767 9.24465 9.48531C9.12465 9.62294 9.09642 9.67152 8.99759 9.79297C8.89877 9.91441 8.86347 9.63104 8.77876 9.52579C8.69406 9.42054 8.75053 9.17765 8.71523 9.03191C8.67994 8.88618 8.65876 8.74045 8.55994 8.6271C8.46112 8.51375 8.33406 8.58662 8.26347 8.54613C8.19288 8.50565 8.14346 8.39231 8.1717 8.23848Z" fill="#1073AC"/>
</svg>
